X:470
T:Spanish Jigg
A:Wyresdale, Lancashire
B:E and J Winder, 1835-41
L:1/8
M:6/8
O:England
Z:Richard Robinson 
%%TUNEURL: http://www.leeds.ac.uk/music/Info/RRTuneBk/gettune/000005a4.html
%%ID:000005a4
K:G
D3 F3 | (AF)A d2A | Bcd AGF | EFE CB,A, |\
E3 F3 | (AF)A d2A | Bcd edc | dec d3 ::
d3 f3 | efe cBA | BcB AGF | EFE CB,A, | \
g3 f3 | efe cBA | Bcd edc | dec d3 ::
